X:1
T:Title
%%score { ( 1 3 ) | ( 2 4 ) }
L:1/8
Q:1/4=100
M:4/4
K:Ab
V:1 treble nm="Grand Piano"
V:3 treble 
V:2 bass 
V:4 bass 
V:1
 [CE]2 [Ec]2 [Ec]>[DB] [CA]>[DB] | [Ec]2 [CE]2 [CF]2 [CE]2 | E2 d2 d>c B>c | d2 G2 F2 E2 | %4
w: J.~M.~Black * * * * *||||
 [CE]2 [Ec]2 [Ec]>[DB] [CA]>[DB] | [Ec]2 [_Ge]2 [Fe]2 [Fd]2 | [DF]2 [Fd]2 c>B A>c | B4 [CA]2 z2 | %8
w: ||||
 e2 c2 A2 E2 | F>A A>B [CA]4 | [Ec]2 [CE]2 [DF]2 [DA]2 | z4 B4 | e2 c2 A2 E2 | %13
w: |||||
 F>G [FA]>[FB] [Ec]4 | [DF]2 [Fd]2 c>B A>c | B4 [CA]2 z2 |] %16
w: |||
V:2
 [A,,A,]2 [A,,A,]2 [A,,A,]>[A,,A,] [A,,E,]>[A,,E,] | [A,,A,]2 [A,,A,]2 [A,,A,]2 [A,,A,]2 | %2
 [E,G,]2 [E,B,E]2 [E,B,E]>[E,A,E] [E,G,E]>[E,A,E] | [E,B,E]2 [E,B,E]2 [E,G,D]2 [E,G,D]2 | %4
 [A,,A,]2 [A,,A,]2 [A,,A,]>[A,,A,] [A,,E,]>[A,,E,] | [A,,A,]2 [C,A,]2 [D,A,]2 [D,A,]2 | %6
 [B,,B,]2 [B,,B,]2 [E,A,E]>[E,D] [E,C]>[E,E] | [E,G,D]4 [A,,A,]2 z2 | %8
 [A,CA]2 [A,EA]2[K:bass] [A,CE]2 [A,C]2 | [D,A,D]>[D,F,D] [D,F,D]>[D,F,D] [A,,A,]4 | %10
 [A,,A,]2 [A,,A,]2 [D,A,]2 [D,F,]2 | z4 G,2 z2 | [A,CE]2 [A,E]2 [A,CE]2 [A,C]2 | %13
 [D,A,D]>[D,A,D] [D,A,]>[D,A,] [A,,A,]4 | [D,A,]2 [D,A,]2 [E,A,E]>[E,D] [E,C]>[E,E] | %15
 [E,G,D]4 [A,,A,]2 z2 |] %16
V:3
 x8 | x8 | x8 | x8 | x8 | x8 | x8 | x8 | x8 | x8 | x8 | [=DB]>[DB] [DB]>[Dc] z2 _D2 | x8 | x8 | %14
 x8 | x8 |] %16
V:4
 x8 | x8 | x8 | x8 | x8 | x8 | x8 | x8 | x4[K:bass] x4 | x8 | x8 | %11
 [B,,F,]>[B,,F,] [B,,B,]>[B,,A,] [E,E]4 | x8 | x8 | x8 | x8 |] %16

